src/DGGeoclicker/skin/dark/img/DGGeoclicker__purposeStreet_dark.svg

<svg xmlns="http://www.w3.org/2000/svg" width="12" height="12"><path fill="#A0A0A0" d="M8.8 0h-5.601l-3.199 12h12l-3.2-12zm-1.8 12h-2v-3h2v3zm0-4h-2v-2h2v2zm0-3h-2v-2h2v2zm0-3h-2v-2h2v2z"/></svg>

<svg xmlns="http://www.w3.org/2000/svg" width="12" height="12">
    <path d="M 8.8,0 H 3.199 L 0,12 H 12 L 8.8,0 z M 7,12 H 5 V 9 h 2 v 3 z M 7,8 H 5 V 6 H 7 V 8 z M 7,5 H 5 V 3 H 7 V 5 z M 7,2 H 5 V 0 h 2 v 2 z" fill="#a0a0a0"/>
</svg>
